X:1
L:1/8
Q:1/4=120
M:4/4
K:C
""^Strathspey."" uc | (vE/F/G) uc>uG A2 (A<B) | vc<uGvA>uG vc>vG E2 | G>Ac>G A/A/A (A>B) | 
 vc>vdue>ud c>A A :: ua | (ge)(ea) vg>veue>ud | c<GA>uG c>G E2 | vG>vAuc>uG A/A/A (A>B) |1 
 c>de>d c<A A :|2 vc>vdue>ug d<ec>G |]
